X:95
T:Fantastic
Z: id:dc-reel-87
M:C
L:1/8
K:D Major
B,|A,DDE FEDF|Adcd BAFA|BABc dBAF|GEFD EDB,D|!
A,DDE FEDF|Adcd BAFA|BABc dBAG|FDEC D3:|!
e|fded cAAe|fdef gbag|fded cAAF|GBAG FDDe|!
fded cAAe|fdfa g2fa|gfge fded|cABc d3:|!